X: 391
T:Je me complains
N: Derived from Jos2910-Je_me_complains.krn
C: Josquin des Prez
%%abc-version 2.0
%%abcx-abcm2ps-target-version 5.9.1 (29 Sep 2008)
%%abc-creator hum2abc beta
%%abcx-conversion-date 2019/02/12 16:15:55
%%abc-edited-by Jesse Rodin
%%abc-edited-by Will Watson 13/11/2011
%%abcx-initial-encoding-date 2011/11/13/
%%humdrum-veritas 399663116
%%humdrum-veritas-data 2020682278
%%linebreak <none>
%%barnumbers 0
L: 1/4
M: 2/1
Q: 1/2=120
V: 1 clef=treble
V: 2 clef=treble-8
V: 3 clef=treble-8
V: 4 clef=treble-8
V: 5 clef=bass
K: F
[V:1] z8 | 
[V:2] z8 | 
[V:3] z4d4 | 
[V:4] g4f4 | 
[V:5] z8 | 
[V:1] z8 | 
[V:2] z8 | 
[V:3] c4B4 | 
[V:4] _e4d2G2 | 
[V:5] z4G,4 | 
[V:1] z4G4 | 
[V:2] z8 | 
[V:3] A2d2d2c2 | 
[V:4] A2F2G4 | 
[V:5] F,4_E,4 | 
[V:1] F4_E4 | 
[V:2] z8 | 
[V:3] d2d2c2c2 | 
[V:4] A4z2c2 | 
[V:5] D,4z2A,2 | 
[V:1] D4G2G2- | 
[V:2] z8 | 
[V:3] d2d2c2c2 | 
[V:4] B4G4 | 
[V:5] B,A,G,F,_E,4 | 
[V:1] G2FEF4 | 
[V:2] z4d4 | 
[V:3] d4z2f2 | 
[V:4] A4z2A2 | 
[V:5] D,4z2D,2 | 
[V:1] G4G2G2- | 
[V:2] c4B4 | 
[V:3] _e2_e2d4 | 
[V:4] G4G4 | 
[V:5] _E,3F,G,4 | 
[V:1] G2^FEF4 | 
[V:2] A4d2d2- | 
[V:3] z2D3EFD | 
[V:4] A4z2A2 | 
[V:5] D,4z2D,2 | 
[V:1] G8 | 
[V:2] d2cBc4 | 
[V:3] G2C3D_EC | 
[V:4] G4G4 | 
[V:5] _E,4E,4 | 
[V:1] z8 | 
[V:2] d4d2d2- | 
[V:3] (3:2:6F3GA2D2F3G | 
[V:4] A4z2A2 | 
[V:5] D,4z2D,2 | 
[V:1] z8 | 
[V:2] d2cBc4 | 
[V:3] (3:2:5A2D2d2e2g4 | 
[V:4] A3BG4 | 
[V:5] F,3G,E,4 | 
[V:1] z4A4 | 
[V:2] d8 | 
[V:3] f4z2f2 | 
[V:4] A8 | 
[V:5] D,8 | 
[V:1] B4B4 | 
[V:2] z8 | 
[V:3] g4g4 | 
[V:4] z8 | 
[V:5] z8 | 
[V:1] A6G2 | 
[V:2] z8 | 
[V:3] f3df2e2- | 
[V:4] z8 | 
[V:5] z8 | 
[V:1] F4E4 | 
[V:2] z4e4 | 
[V:3] edd4^c2 | 
[V:4] z8 | 
[V:5] z8 | 
[V:1] D8 | 
[V:2] f4f4 | 
[V:3] d4A4 | 
[V:4] D3EFGAF | 
[V:5] z2D,2D,2D,2 | 
[V:1] z8 | 
[V:2] e6d2 | 
[V:3] c3BG4 | 
[V:4] G2CDEFG2- | 
[V:5] C,6B,,2 | 
[V:1] z8 | 
[V:2] c4B4 | 
[V:3] z2c2d2e2 | 
[V:4] G2C2G4 | 
[V:5] A,,4G,,4 | 
[V:1] z2D2F2D2 | 
[V:2] A8 | 
[V:3] f4d2f2 | 
[V:4] F8 | 
[V:5] D,8 | 
[V:1] F3GA2B2- | 
[V:2] z8 | 
[V:3] d2f3ed2 | 
[V:4] z8 | 
[V:5] z8 | 
[V:1] BAA4G2 | 
[V:2] z8 | 
[V:3] c2A2B4 | 
[V:4] z8 | 
[V:5] z8 | 
[V:1] A8 | 
[V:2] z2A2c2A2 | 
[V:3] A4z4 | 
[V:4] z4A2c2 | 
[V:5] z8 | 
[V:1] z8 | 
[V:2] c3de2f2- | 
[V:3] z2e2e2d2 | 
[V:4] A2c3BA2 | 
[V:5] z2A,,2C,2D,2 | 
[V:1] z8 | 
[V:2] fee4d2 | 
[V:3] B2c2A3B | 
[V:4] G2E2F4 | 
[V:5] E,2C,2D,4 | 
[V:1] z4G4 | 
[V:2] e8 | 
[V:3] c4z2c2 | 
[V:4] E8 | 
[V:5] C,8 | 
[V:1] F4_E4 | 
[V:2] z8 | 
[V:3] d2B2c2g2 | 
[V:4] z4z2c2 | 
[V:5] z4z2C,2 | 
[V:1] D4G2G2- | 
[V:2] z8 | 
[V:3] f4_e4 | 
[V:4] A2B2G2c2 | 
[V:5] D,2B,,2C,4 | 
[V:1] G2FEF4 | 
[V:2] z4d4 | 
[V:3] d4z2f2 | 
[V:4] B4A4 | 
[V:5] G,,4D,4 | 
[V:1] G4z2G2 | 
[V:2] c4B4 | 
[V:3] _e2_e2d4 | 
[V:4] G4z2G2 | 
[V:5] _E,3F,G,2G,,2 | 
[V:1] F4F4 | 
[V:2] A4d2d2- | 
[V:3] z2D3_EFD | 
[V:4] A4A4 | 
[V:5] D,4z2D,2 | 
[V:1] G8 | 
[V:2] d2cBc4 | 
[V:3] G2C3D_EC | 
[V:4] G8 | 
[V:5] _E,4E,4 | 
[V:1] z8 | 
[V:2] d4z2d2 | 
[V:3] F4z2F2 | 
[V:4] z2A2B2B2 | 
[V:5] D,8 | 
[V:1] z8 | 
[V:2] c4c4 | 
[V:3] F3GA2G2 | 
[V:4] A3GF2E2 | 
[V:5] z8 | 
[V:1] z4A4 | 
[V:2] d8 | 
[V:3] B3cA4 | 
[V:4] D2defgaf | 
[V:5] z4D,4 | 
[V:1] B6B2 | 
[V:2] z8 | 
[V:3] GABcd2B2 | 
[V:4] g2GABcde | 
[V:5] G,4G,4 | 
[V:1] A6G2 | 
[V:2] z8 | 
[V:3] (3c2A2c2F2G2 | 
[V:4] f2FGABc2- | 
[V:5] F,6E,2 | 
[V:1] F4E4 | 
[V:2] z4e4 | 
[V:3] A2B2c4 | 
[V:4] c2F2G2A2 | 
[V:5] D,4C,4 | 
[V:1] D8 | 
[V:2] f6f2 | 
[V:3] d2DEFGAB | 
[V:4] DEFGA2F2 | 
[V:5] B,,2D,2D,2D,2 | 
[V:1] z8 | 
[V:2] e6d2 | 
[V:3] c3BG4 | 
[V:4] G2CDEFG2- | 
[V:5] C,6B,,2 | 
[V:1] z8 | 
[V:2] c4B4 | 
[V:3] z2c2d2e2 | 
[V:4] G2C2G4 | 
[V:5] A,,4G,,4 | 
[V:1] z4D4 | 
[V:2] A8 | 
[V:3] f2d2f3e | 
[V:4] F6D2 | 
[V:5] D,8 | 
[V:1] F3EF2G2 | 
[V:2] z8 | 
[V:3] dcd3cB2 | 
[V:4] D4z2d2 | 
[V:5] z2D,2D,2G,,2 | 
[V:1] A3GA2B2- | 
[V:2] z8 | 
[V:3] A2f3edc | 
[V:4] f3edcd2 | 
[V:5] D,3E,F,2B,,2- | 
[V:1] BAG3^FFE | 
[V:2] z4A4 | 
[V:3] d2G2A2D2 | 
[V:4] B2c2d4 | 
[V:5] B,,C,_E,2D,4 | 
[V:1] G8 | 
[V:2] c3Bc2d2 | 
[V:3] G8 | 
[V:4] _e3dc2B2 | 
[V:5] C,6G,,2 | 
[V:1] z8 | 
[V:2] _e3d_e2f2- | 
[V:3] z8 | 
[V:4] c3AB2c2 | 
[V:5] C,D,_E,F,G,2A,2 | 
[V:1] z8 | 
[V:2] f_ed3ccB | 
[V:3] z2d2_e2g2 | 
[V:4] A2B2G4 | 
[V:5] F,2G,2_E,4 | 
[V:1] z4z2D2 | 
[V:2] d8- | 
[V:3] f3edcB2 | 
[V:4] A2D2F2G2 | 
[V:5] D,6G,,2 | 
[V:1] F3GA2B2- | 
[V:2] d8- | 
[V:3] A2f3edc | 
[V:4] A2D2z2GA | 
[V:5] D,3E,F,2G,2 | 
[V:1] BAG3^FFE | 
[V:2] d8- | 
[V:3] d2B2A4 | 
[V:4] Bcd3cA2 | 
[V:5] G,,4D,4 | 
[V:1] G2D2F2F2 | 
[V:2] d8- | 
[V:3] z2G2A3A | 
[V:4] B4A2d2 | 
[V:5] z2G,,2D,3D, | 
[V:1] D2D2F2F2 | 
[V:2] d8- | 
[V:3] A2B2B3B | 
[V:4] f2f2d2d2 | 
[V:5] D,2B,,2B,,3B,, | 
[V:1] D4z2D2 | 
[V:2] d8- | 
[V:3] B2B,2B,B,B,C | 
[V:4] f2f2d4 | 
[V:5] B,,2B,2B,B,B,B, | 
[V:1] F3GA2B2- | 
[V:2] d8- | 
[V:3] DDDEFFGA | 
[V:4] d2f3edc | 
[V:5] A,G,F,E,D,C,B,,A,, | 
[V:1] BAG4^F2 | 
[V:2] d8- | 
[V:3] Bcd3cA2 | 
[V:4] d2B2A4 | 
[V:5] G,,2G,,2D,4 | 
[V:1] G8 |]  
[V:2] d8 |]  
[V:3] B8 |]  
[V:4] G8 |]  
[V:5] G,,8 |]  



